build/payment/MaestroL.svg

<svg xmlns="http://www.w3.org/2000/svg" fill="none" viewBox="0 0 40 40" focusable="false"><path d="M0 0H40V40H0z"/><path fill="none" d="M6 10H34V30H6z"/><rect width="28" height="20" x="6" y="10" fill="#F5F5F6" rx="2"/><path fill="#6C6BBD" fill-rule="evenodd" d="M17.6113 24.4012L22.3638 24.4012L22.3638 15.6853L17.6113 15.6853L17.6113 24.4012Z"/><path fill="#6C6BBD" fill-rule="evenodd" d="M17.9228 20C17.9228 18.2456 18.7353 16.6832 20.0002 15.676C19.0749 14.9394 17.9077 14.5 16.6389 14.5C13.6351 14.5 11.2002 16.9626 11.2002 20C11.2002 23.0374 13.6351 25.5 16.6389 25.5C17.9077 25.5 19.0749 25.0606 20.0002 24.324C18.7353 23.3169 17.9228 21.7544 17.9228 20Z"/><path fill="#EB001B" fill-rule="evenodd" d="M17.9228 20C17.9228 18.2456 18.7353 16.6832 20.0002 15.676C19.0749 14.9394 17.9077 14.5 16.6389 14.5C13.6351 14.5 11.2002 16.9626 11.2002 20C11.2002 23.0374 13.6351 25.5 16.6389 25.5C17.9077 25.5 19.0749 25.0606 20.0002 24.324C18.7353 23.3169 17.9228 21.7544 17.9228 20Z"/><path fill="#6C6BBD" fill-rule="evenodd" d="M28.7883 19.9998C28.7883 23.0377 26.3533 25.5 23.3494 25.5C22.0805 25.5 20.9252 25.0607 20.0002 24.324C21.2652 23.3173 22.0654 21.7543 22.0654 19.9998C22.0654 18.2454 21.2652 16.6832 20.0002 15.676C20.9252 14.9397 22.0805 14.5 23.3494 14.5C26.3533 14.5 28.7883 16.9623 28.7883 19.9998Z"/><path fill="#0099DF" fill-rule="evenodd" d="M28.7883 19.9998C28.7883 23.0377 26.3533 25.5 23.3494 25.5C22.0805 25.5 20.9252 25.0607 20.0002 24.324C21.2652 23.3173 22.0654 21.7543 22.0654 19.9998C22.0654 18.2454 21.2652 16.6832 20.0002 15.676C20.9252 14.9397 22.0805 14.5 23.3494 14.5C26.3533 14.5 28.7883 16.9623 28.7883 19.9998Z"/></svg>

<svg xmlns="http://www.w3.org/2000/svg" fill="none" viewBox="0 0 40 40" focusable="false"><path fill="none" d="M6 10h28v20H6z"/><rect width="28" height="20" x="6" y="10" fill="#F0F2F5" rx="2"/><path fill="#6C6BBD" fill-rule="evenodd" d="M17.61 24.4h4.75v-8.72h-4.75z"/><path fill="#EB001B" fill-rule="evenodd" d="M17.92 20c0-1.76.81-3.32 2.08-4.33-.93-.74-2.1-1.17-3.37-1.17-3 0-5.43 2.46-5.43 5.5 0 3.03 2.43 5.5 5.43 5.5 1.27 0 2.44-.44 3.37-1.18A5.5 5.5 0 0 1 17.92 20"/><path fill="#0099DF" fill-rule="evenodd" d="M28.78 19.99c0 3.04-2.43 5.51-5.44 5.51-1.26 0-2.43-.44-3.36-1.18a5.5 5.5 0 0 0 2.08-4.33c0-1.75-.81-3.31-2.08-4.32.93-.74 2.1-1.17 3.36-1.17 3.01 0 5.44 2.46 5.44 5.49"/></svg>
